icons/1_Primary/PipeFlare.svg

<svg width="1024" height="1024" fill="none" xmlns="http://www.w3.org/2000/svg"><g clip-path="url(#a)"><path d="M512 1024c282.77 0 512-229.23 512-512S794.77 0 512 0 0 229.23 0 512s229.23 512 512 512Z" fill="#8C72BD"/><path d="M313.18 255.06c-77.902 41.74-85.844 189.7 43.204 189.7-.04.073-.09.144-.13.214h203.08a98.385 98.385 0 0 1 97.76 98.385 98.387 98.387 0 0 1-97.76 98.385h-87.76a34.357 34.357 0 0 0-34.324 34.323v62.467a219.035 219.035 0 0 0 267.323-34.881 219.023 219.023 0 0 0 61.808-176.867 219.039 219.039 0 0 0-97.56-159.952 219.032 219.032 0 0 0-89.851-33.84 178.917 178.917 0 0 0-30.398-2.15c-153.95.013-283.81 34.983-235.4-75.785l.008.001Zm-56.573 215.38s-8.504 124.13 77.689 124.25a218.069 218.069 0 0 0 38.896 86.466v-5.078a98.497 98.497 0 0 1 98.384-98.384h87.761a34.328 34.328 0 0 0 0-68.653h-226.21c-62.769 0-76.523-38.598-76.523-38.598l.003-.003Z" fill="#fff"/></g><defs><clipPath id="a"><path fill="#fff" d="M0 0h1024v1024H0z"/></clipPath></defs></svg>

<svg width="1024" height="1024" viewBox="0 0 1024 1024" fill="none" xmlns="http://www.w3.org/2000/svg">
<g clip-path="url(#clip0_2_3141)">
<path d="M512 1024C794.77 1024 1024 794.77 1024 512C1024 229.23 794.77 0 512 0C229.23 0 0 229.23 0 512C0 794.77 229.23 1024 512 1024Z" fill="#8C72BD"/>
<path d="M313.18 255.06C235.278 296.8 227.336 444.76 356.384 444.76C356.344 444.833 356.294 444.904 356.254 444.974H559.334C585.319 445.14 610.183 455.578 628.498 474.011C646.814 492.444 657.094 517.374 657.094 543.359C657.094 569.344 646.814 594.274 628.498 612.707C610.183 631.14 585.319 641.578 559.334 641.744H471.574C462.474 641.753 453.749 645.372 447.314 651.807C440.879 658.242 437.259 666.967 437.25 676.067V738.534C465.151 755.001 496.358 765.073 528.622 768.024C560.885 770.975 593.401 766.733 623.827 755.602C654.253 744.47 681.831 726.728 704.573 703.653C727.315 680.579 744.654 652.746 755.342 622.162C766.031 591.578 769.8 559.003 766.381 526.786C762.961 494.569 752.437 463.511 735.567 435.852C718.697 408.193 695.9 384.621 668.821 366.834C641.742 349.048 611.055 337.49 578.97 332.994C568.917 331.414 558.747 330.695 548.572 330.844C394.622 330.857 264.762 365.827 313.172 255.059L313.18 255.06ZM256.607 470.44C256.607 470.44 248.103 594.57 334.296 594.69C340.763 626.016 354.042 655.535 373.192 681.156V676.078C373.222 649.994 383.597 624.987 402.041 606.543C420.485 588.099 445.492 577.724 471.576 577.694H559.337C568.409 577.645 577.092 574.007 583.49 567.575C589.887 561.143 593.479 552.44 593.479 543.368C593.479 534.296 589.887 525.592 583.49 519.16C577.092 512.728 568.409 509.09 559.337 509.041H333.127C270.358 509.041 256.604 470.443 256.604 470.443L256.607 470.44Z" fill="white"/>
</g>
<defs>
<clipPath id="clip0_2_3141">
<rect width="1024" height="1024" fill="white"/>
</clipPath>
</defs>
</svg>
